www/assets/images/test_icons/flags/UZ.svg

<svg fill="none" height="15" viewBox="0 0 21 15" width="21" xmlns="http://www.w3.org/2000/svg" xmlns:xlink="http://www.w3.org/1999/xlink"><mask id="a" height="15" maskUnits="userSpaceOnUse" width="21" x="0" y="0"><path d="m19 0h-17c-1.10457 0-2 .89543-2 2v11c0 1.1046.89543 2 2 2h17c1.1046 0 2-.8954 2-2v-11c0-1.10457-.8954-2-2-2z" fill="#fff"/></mask><g mask="url(#a)"><path d="m19 0h-17c-1.10457 0-2 .89543-2 2v11c0 1.1046.89543 2 2 2h17c1.1046 0 2-.8954 2-2v-11c0-1.10457-.8954-2-2-2z" fill="#d4112a"/><g clip-rule="evenodd" fill-rule="evenodd"><path d="m0 11h21v4h-21z" fill="#20bd42"/><path d="m0 0h21v4h-21z" fill="#02a3bd"/><path d="m0 5h21v5h-21zm5-1.085c-.156.055-.325.085-.5.085-.828 0-1.5-.672-1.5-1.5s.672-1.5 1.5-1.5c.175 0 .344.03.5.085-.583.206-1 .762-1 1.415s.417 1.21 1 1.415z" fill="#fff"/><path d="m6 2h1v1h-1zm1-1h1v1h-1zm1 1h1v1h-1zm1-1h1v1h-1zm1 1h1v1h-1zm-1 1h1v1h-1zm-2 0h1v1h-1z" fill="#78cddb"/></g><path d="m19 .5h-17c-.82843 0-1.5.67157-1.5 1.5v11c0 .8284.67157 1.5 1.5 1.5h17c.8284 0 1.5-.6716 1.5-1.5v-11c0-.82843-.6716-1.5-1.5-1.5z" stroke="#000" stroke-opacity=".1"/></g></svg>

<svg width="21" height="15" viewBox="0 0 21 15" fill="none" xmlns="http://www.w3.org/2000/svg">
<mask id="mask0_3_16" style="mask-type:alpha" maskUnits="userSpaceOnUse" x="0" y="0" width="21" height="15">
<path d="M19 0H2C0.89543 0 0 0.89543 0 2V13C0 14.1046 0.89543 15 2 15H19C20.1046 15 21 14.1046 21 13V2C21 0.89543 20.1046 0 19 0Z" fill="white"/>
</mask>
<g mask="url(#mask0_3_16)">
<path d="M19 0H2C0.89543 0 0 0.89543 0 2V13C0 14.1046 0.89543 15 2 15H19C20.1046 15 21 14.1046 21 13V2C21 0.89543 20.1046 0 19 0Z" fill="#D4112A"/>
<path fill-rule="evenodd" clip-rule="evenodd" d="M0 11H21V15H0V11Z" fill="#20BD42"/>
<path fill-rule="evenodd" clip-rule="evenodd" d="M0 0H21V4H0V0Z" fill="#02A3BD"/>
<path fill-rule="evenodd" clip-rule="evenodd" d="M0 5H21V10H0V5ZM5 3.915C4.844 3.97 4.675 4 4.5 4C3.672 4 3 3.328 3 2.5C3 1.672 3.672 1 4.5 1C4.675 1 4.844 1.03 5 1.085C4.417 1.291 4 1.847 4 2.5C4 3.153 4.417 3.71 5 3.915Z" fill="white"/>
<path fill-rule="evenodd" clip-rule="evenodd" d="M6 2H7V3H6V2ZM7 1H8V2H7V1ZM8 2H9V3H8V2ZM9 1H10V2H9V1ZM10 2H11V3H10V2ZM9 3H10V4H9V3ZM7 3H8V4H7V3Z" fill="#78CDDB"/>
<path d="M19 0.5H2C1.17157 0.5 0.5 1.17157 0.5 2V13C0.5 13.8284 1.17157 14.5 2 14.5H19C19.8284 14.5 20.5 13.8284 20.5 13V2C20.5 1.17157 19.8284 0.5 19 0.5Z" stroke="black" stroke-opacity="0.1"/>
</g>
</svg>
